X:1
T: The Lawland Lads Think They Are Fine
C:
R:Jig
Q:180
K:C
M:6/8
L:1/16
|:C2|C3DC2 E3FE2|G3AG2 e4d2|c2G2E2 F3GA2|G3cE2 E2D2C2|C3DC2 G3AG2|c3dc2 g4f2|e2c2G2 A3Bc2|G3AG2 EC3C2|
E4F2 G4c2|e3dc2 d2G2F2|E4e2 e2d2c2|B4c2 d2G2F2|E4c2 c2B2A2|E4f2 e4d2|e2c2G2 A3Bc2|G2A2G2 EC3:|
